design-system/icons/history--labs-icons.svg

<svg width="22" height="20" viewBox="0 0 22 20" fill="none" xmlns="http://www.w3.org/2000/svg">
<mask id="mask0_303_65" style="mask-type:alpha" maskUnits="userSpaceOnUse" x="0" y="0" width="22" height="22">
<rect x="0.5" width="21.0833" height="21.0833" fill="#D9D9D9"/>
</mask>
<g mask="url(#mask0_303_65)">
<path d="M11.371 19.1507C9.36511 19.1507 7.58986 18.5687 6.04522 17.4047C4.50057 16.2408 3.47934 14.7364 2.98154 12.8916C2.90834 12.5841 2.9669 12.3023 3.15724 12.0461C3.34757 11.7898 3.61111 11.6398 3.94786 11.5958C4.25533 11.5519 4.54083 11.6032 4.80437 11.7496C5.06791 11.896 5.24361 12.1156 5.33146 12.4084C5.71213 13.7115 6.45151 14.773 7.5496 15.5929C8.64769 16.4128 9.90683 16.8227 11.327 16.8227C13.0547 16.8227 14.5261 16.2115 15.7414 14.9889C16.9566 13.7664 17.5642 12.284 17.5642 10.5417C17.5642 8.81401 16.9639 7.33524 15.7633 6.10538C14.5627 4.87552 13.0986 4.26059 11.371 4.26059C10.2582 4.26059 9.2187 4.52413 8.25238 5.05122C7.28606 5.5783 6.51007 6.31036 5.92443 7.2474H7.39587C7.71797 7.2474 7.9925 7.36087 8.21943 7.5878C8.44637 7.81474 8.55984 8.08927 8.55984 8.41137C8.55984 8.73348 8.44637 9.008 8.21943 9.23494C7.9925 9.46188 7.71797 9.57535 7.39587 9.57535H3.35489C3.03279 9.57535 2.75826 9.46188 2.53133 9.23494C2.30439 9.008 2.19092 8.73348 2.19092 8.41137V4.3704C2.19092 4.04829 2.30439 3.77377 2.53133 3.54683C2.75826 3.31989 3.03279 3.20642 3.35489 3.20642C3.677 3.20642 3.95152 3.31989 4.17846 3.54683C4.4054 3.77377 4.51887 4.04829 4.51887 4.3704V5.31476C5.29485 4.20203 6.29046 3.36016 7.50568 2.78915C8.7209 2.21814 10.0093 1.93264 11.371 1.93264C12.5569 1.93264 13.666 2.15958 14.6982 2.61346C15.7304 3.06733 16.6308 3.68226 17.3995 4.45825C18.1681 5.23423 18.7757 6.14565 19.2223 7.19249C19.6689 8.23934 19.8921 9.35573 19.8921 10.5417C19.8921 11.7276 19.6689 12.844 19.2223 13.8908C18.7757 14.9377 18.1681 15.8491 17.3995 16.6251C16.6308 17.4011 15.7304 18.016 14.6982 18.4699C13.666 18.9238 12.5569 19.1507 11.371 19.1507ZM11.942 10.0585L14.1162 12.2327C14.3358 12.4523 14.4493 12.7195 14.4566 13.0343C14.4639 13.3491 14.3504 13.6236 14.1162 13.8579C13.8966 14.0775 13.6257 14.1873 13.3036 14.1873C12.9815 14.1873 12.7106 14.0775 12.491 13.8579L9.9654 11.3762C9.84827 11.2591 9.76042 11.131 9.70186 10.9919C9.64329 10.8528 9.61401 10.7027 9.61401 10.5417V6.96189C9.61401 6.63979 9.72748 6.36526 9.95442 6.13833C10.1814 5.91139 10.4559 5.79792 10.778 5.79792C11.1001 5.79792 11.3746 5.91139 11.6016 6.13833C11.8285 6.36526 11.942 6.63979 11.942 6.96189V10.0585Z" fill="#1C1B1F"/>
</g>
</svg>

<svg xmlns="http://www.w3.org/2000/svg" width="22" height="20" fill="none" viewBox="0 0 22 20"><mask id="a" width="22" height="22" x="0" y="0" maskUnits="userSpaceOnUse" style="mask-type:alpha"><path fill="#d9d9d9" d="M.5 0h21.083v21.083H.5z"/></mask><g mask="url(#a)"><path fill="#1c1b1f" d="M11.371 19.15q-3.009 0-5.326-1.745-2.317-1.747-3.063-4.513a.98.98 0 0 1 .175-.846q.285-.384.79-.45a1.33 1.33 0 0 1 .857.154q.396.22.527.658a5.97 5.97 0 0 0 2.219 3.185q1.647 1.23 3.777 1.23 2.593 0 4.414-1.834 1.824-1.834 1.823-4.447 0-2.592-1.8-4.437-1.801-1.844-4.393-1.844a6.4 6.4 0 0 0-3.119.79 6.2 6.2 0 0 0-2.328 2.196h1.472q.483 0 .823.34.34.341.34.824t-.34.824-.823.34H3.355q-.483 0-.824-.34a1.12 1.12 0 0 1-.34-.824v-4.04q0-.484.34-.824t.824-.34.823.34q.34.34.34.823v.945a7.45 7.45 0 0 1 2.988-2.526 9 9 0 0 1 3.865-.856q1.779 0 3.327.68A8.7 8.7 0 0 1 17.4 4.458a8.7 8.7 0 0 1 1.823 2.734 8.45 8.45 0 0 1 .67 3.35 8.45 8.45 0 0 1-.67 3.349 8.7 8.7 0 0 1-1.823 2.734 8.7 8.7 0 0 1-2.7 1.845 8.2 8.2 0 0 1-3.328.68m.571-9.091 2.174 2.174q.33.33.34.801a1.1 1.1 0 0 1-.34.824q-.33.33-.812.33t-.813-.33l-2.526-2.482a1.148 1.148 0 0 1-.351-.835v-3.58q0-.482.34-.823t.824-.34q.483 0 .824.34t.34.824z"/></g></svg>
